X: 139
T:Williy Coleman's
M:6/8
L:1/8
F:http://blackrosetheband.googlepages.com/ABCTUNES.ABC May 2009
C:Willy Coleman
S:Kevin Burke & Micheal O' Domhnaill
R:Jig
K:G
"C"B3 AGE|GED GBd|"G"edB dgb|"C"age "G"dBA| "C"(3Bcd B AGE|GED "G"GBd|edB "C"dBA|BGG "G"G3:|
|:"G"gfg edB|dgb "C"age|"G"gfg edB|GBd "C"e2d| "G"gag edB|dgb "C"age|"G"d^cd gdB|"Dsus2"AGE GBd:|

